dist/img/picture/brands/saf-holland.svg

<svg width="120" height="20" viewBox="0 0 120 20" fill="none" xmlns="http://www.w3.org/2000/svg">
<g clip-path="url(#clip0_1301_1222)">
<path d="M110.349 0.441551H13.3538C12.507 0.242853 11.6029 0.147705 10.6792 0.147705C9.59274 0.147705 8.48122 0.335161 7.47036 0.713859C3.21235 1.74025 0.0471191 5.57978 0.0471191 10.1617C0.0471191 14.8359 3.33915 18.7378 7.72524 19.669C8.75556 19.9873 9.8802 20.1427 11.0249 20.1427C11.9888 20.1427 12.8666 20.0517 13.66 19.8818H110.349C115.704 19.8818 120.047 15.5302 120.047 10.1617C120.047 4.79398 115.704 0.441551 110.349 0.441551Z" fill="white"/>
<path d="M73.5326 7.55089C72.8217 7.5271 72.6622 7.95325 72.6622 7.95325L70.7652 13.4266C70.7387 13.5212 70.7236 13.582 70.7249 13.5988C70.7373 13.7884 70.8316 14.1193 71.5426 14.1432C72.2535 14.1677 72.413 13.7409 72.413 13.7409L74.324 8.2697C74.324 8.2697 74.3517 8.1129 74.3517 8.09538C74.3378 7.90568 74.242 7.57396 73.5326 7.55089Z" fill="#014688"/>
<path d="M120.047 10.1618C120.047 7.8813 119.262 5.78556 117.949 4.12793L113.179 17.8414C113.179 17.8414 112.944 18.784 113.534 19.0639C113.734 19.1457 113.953 19.1415 114.161 19.1004C117.622 17.6161 120.047 14.1735 120.047 10.1618Z" fill="#014688"/>
<path d="M65.7429 5.13337L67.5028 0.44165H64.2655L62.6678 5.13277L65.7429 5.13337Z" fill="#014688"/>
<path d="M109.774 18.5923L110.674 15.8661C110.086 16.6198 108.997 16.6904 108.143 16.6688C107.491 16.5973 106.831 16.2909 106.468 15.673C106.207 15.3168 106.067 14.7395 106.227 14.2427L108.569 7.45526C108.973 6.32733 110.06 5.27834 111.249 5.15242C111.249 5.15242 113.053 4.92295 114.081 6.15857L115.554 1.96295C114.049 1.00153 112.266 0.441769 110.349 0.441769H89.9143L84.227 16.6505V16.6484H81.0826L86.7726 0.44165H85.0514L79.3626 16.6504V16.6483H76.2181L81.9084 0.44165H70.6472L64.9294 16.6484L61.7475 16.6477L64.7976 7.86177H61.7211L57.3687 19.8819H109.716C109.58 19.1695 109.774 18.5923 109.774 18.5923ZM72.5375 16.6435C72.5375 16.6435 70.485 16.647 69.454 16.6372C68.7998 16.6443 68.1402 16.2594 67.7785 15.6435C67.5706 15.2796 67.3918 14.7044 67.5361 14.2125L69.8779 7.42425C70.2826 6.29704 71.3692 5.24804 72.5581 5.12212H75.406C76.3609 5.23621 77.1965 5.68899 77.5291 6.82674C77.6414 7.18994 77.5929 7.56982 77.5249 7.89668C76.7407 10.2759 75.9409 12.6291 75.0444 14.9564C74.5622 16.0788 73.3551 16.6443 72.5375 16.6435ZM90.9481 16.6497L91.2336 15.8367C90.646 16.5903 89.5555 16.6602 88.7031 16.6385C88.049 16.5671 87.3908 16.2607 87.0276 15.6443C86.8572 15.2138 86.6784 14.6891 86.7865 14.214L89.1285 7.42579C89.5331 6.29775 90.6197 5.24958 91.8087 5.12354C91.8087 5.12354 93.6129 4.89266 94.6412 6.12982L95.0044 5.08579L98.1487 5.09206L94.0925 16.651V16.6496L90.9481 16.6497ZM100.786 16.6463L103.742 8.19408C103.742 8.19408 103.926 7.68047 103.086 7.58177C102.339 7.4936 102.115 7.99325 102.105 8.01703C102.04 8.18153 99.0717 16.6441 99.0717 16.6441L95.9287 16.642L100.006 5.09479H103.142L102.984 5.63076C102.984 5.63076 104.373 4.63159 105.858 5.33822C107.341 6.04496 106.933 7.87195 106.933 7.87195L103.897 16.646L100.786 16.6463Z" fill="#014688"/>
<path d="M92.7773 7.61259C92.0665 7.58809 91.907 8.01495 91.907 8.01495L90.01 13.4883C89.9822 13.5828 89.9669 13.643 89.9684 13.6597C89.9822 13.8507 90.0765 14.181 90.7874 14.2048C91.4969 14.2286 91.6563 13.8025 91.6563 13.8025L93.5674 8.33046C93.5674 8.33046 93.5965 8.17377 93.5951 8.15697C93.5812 7.96655 93.4869 7.63566 92.7773 7.61259Z" fill="#014688"/>
<path d="M111.098 13.8319L113.009 8.36065C113.009 8.36065 113.053 8.20314 113.056 8.18645C113.081 8.07095 112.927 7.66515 112.216 7.64195C111.507 7.61816 111.346 8.04432 111.346 8.04432L109.45 13.517C109.422 13.6122 109.409 13.6724 109.409 13.6892C109.422 13.8802 109.517 14.2111 110.226 14.2349C110.937 14.2586 111.098 13.8319 111.098 13.8319Z" fill="#014688"/>
<path d="M2.86044 13.3567H6.91806C6.91806 15.8981 8.89489 16.889 11.1365 16.889C12.6047 16.889 14.847 16.4607 14.847 14.5071C14.847 12.4478 11.9915 12.0992 9.18657 11.3491C6.35743 10.6004 3.50063 9.5025 3.50063 5.91706C3.50063 3.30771 5.1456 1.60665 7.26376 0.76416C3.10981 1.86345 0.0471191 5.65386 0.0471191 10.1624C0.0471191 14.7337 3.19712 18.5656 7.43977 19.6026C4.79157 18.7069 2.82364 16.6889 2.86044 13.3567Z" fill="#E0041D"/>
<path d="M30.8103 6.55668L29.4369 0.44165H28.7925L27.3873 6.55183L30.8103 6.55668Z" fill="#E0041D"/>
<path d="M25.0577 13.7731L23.2132 19.8818H34.6898L33.1051 13.7731H25.0577Z" fill="#E0041D"/>
<path d="M33.0012 0.44165L35.9378 9.29763H22.2812L25.3349 0.44165H13.3482C16.1296 1.10922 18.2658 2.91881 18.2658 6.29076H14.2082C14.0737 3.99005 12.4454 3.40224 10.4422 3.40224C9.10698 3.40224 7.55835 3.96343 7.55835 5.56863C7.55835 7.04023 8.46667 7.2284 13.2471 8.45928C14.6342 8.80639 18.9061 9.69017 18.9061 14.0251C18.9061 16.866 17.0991 19.1262 13.6573 19.8819H18.7696L21.864 10.9903H36.4809L39.1188 19.8819H40.4146V0.44165H33.0012Z" fill="#E0041D"/>
<path d="M53.6069 0.44165V4.06698H44.5027V8.49147H52.4089V11.8258H44.5027V19.8819H54.1196L61.0283 0.44165H53.6069Z" fill="#E0041D"/>
</g>
<defs>
<clipPath id="clip0_1301_1222">
<rect width="120" height="20" fill="white"/>
</clipPath>
</defs>
</svg>

<svg width="120" height="20" viewBox="0 0 120 20" fill="none" xmlns="http://www.w3.org/2000/svg"><g clip-path="url(#clip0_1301_1222)"><path d="M110.349.442H13.354a11.756 11.756 0 00-2.675-.294A9.24 9.24 0 007.47.714a9.718 9.718 0 00-7.423 9.448 9.717 9.717 0 007.678 9.507 11.24 11.24 0 003.3.474c.964 0 1.842-.091 2.635-.261h96.689c5.355 0 9.698-4.352 9.698-9.72s-4.343-9.72-9.698-9.72z" fill="#fff"/><path d="M73.533 7.55c-.711-.023-.87.403-.87.403l-1.898 5.474a.983.983 0 00-.04.172c.012.19.107.52.818.544.71.025.87-.402.87-.402l1.911-5.471s.028-.157.028-.175c-.014-.19-.11-.521-.82-.544zm46.514 2.612c0-2.28-.785-4.376-2.098-6.034l-4.77 13.713s-.235.943.355 1.223c.2.082.419.078.627.036a9.72 9.72 0 005.886-8.938zM65.743 5.133l1.76-4.691h-3.237l-1.598 4.69 3.075.001z" fill="#014688"/><path d="M109.774 18.592l.9-2.726c-.588.754-1.677.824-2.531.803-.652-.072-1.312-.378-1.675-.996-.261-.356-.401-.934-.241-1.43l2.342-6.788c.404-1.128 1.491-2.177 2.68-2.303 0 0 1.804-.229 2.832 1.007l1.473-4.196a9.632 9.632 0 00-5.205-1.521H89.914L84.227 16.65v-.003h-3.144L86.773.442H85.05L79.363 16.65v-.002h-3.145L81.908.442h-11.26l-5.719 16.206h-3.181l3.05-8.786H61.72l-4.352 12.02h52.347c-.136-.713.058-1.29.058-1.29zm-37.237-1.948s-2.052.003-3.083-.007c-.654.007-1.314-.378-1.675-.994-.208-.363-.387-.939-.243-1.43l2.342-6.789c.405-1.127 1.491-2.176 2.68-2.302h2.848c.955.114 1.79.567 2.123 1.705.112.363.064.743-.004 1.07-.784 2.379-1.584 4.732-2.48 7.06-.483 1.122-1.69 1.687-2.508 1.686zm18.411.006l.286-.813c-.588.753-1.678.823-2.53.802-.655-.072-1.313-.378-1.676-.995-.17-.43-.35-.955-.242-1.43l2.343-6.788c.404-1.128 1.49-2.176 2.68-2.302 0 0 1.804-.231 2.832 1.006l.363-1.044 3.145.006-4.056 11.559v-.001h-3.145zm9.838-.004l2.956-8.452s.184-.514-.656-.612c-.747-.088-.971.411-.981.435-.065.165-3.033 8.627-3.033 8.627l-3.143-.002 4.077-11.547h3.136l-.158.536s1.389-1 2.874-.293c1.483.707 1.075 2.534 1.075 2.534l-3.036 8.774h-3.111z" fill="#014688"/><path d="M92.777 7.613c-.71-.025-.87.402-.87.402l-1.897 5.473a.9.9 0 00-.042.172c.014.19.108.521.82.545.709.024.868-.402.868-.402l1.911-5.473s.03-.156.028-.173c-.014-.19-.108-.521-.818-.544zm18.321 6.219l1.911-5.471s.044-.158.047-.175c.025-.115-.129-.52-.84-.544-.709-.024-.87.402-.87.402l-1.896 5.473a1.011 1.011 0 00-.041.172c.013.191.108.522.817.546.711.024.872-.403.872-.403z" fill="#014688"/><path d="M2.86 13.357h4.058c0 2.541 1.977 3.532 4.218 3.532 1.469 0 3.711-.428 3.711-2.382 0-2.06-2.855-2.408-5.66-3.158C6.357 10.6 3.5 9.502 3.5 5.917c0-2.61 1.645-4.31 3.763-5.153a9.72 9.72 0 00-7.217 9.398 9.717 9.717 0 007.393 9.44c-2.648-.895-4.616-2.913-4.58-6.245zm27.95-6.8L29.437.442h-.645l-1.405 6.11 3.423.005zm-5.752 7.216l-1.845 6.109H34.69l-1.585-6.109h-8.047z" fill="#E0041D"/><path d="M33.001.442l2.937 8.856H22.28L25.335.442H13.348c2.782.667 4.918 2.477 4.918 5.849h-4.058c-.134-2.301-1.763-2.889-3.766-2.889-1.335 0-2.884.561-2.884 2.167 0 1.471.909 1.66 5.69 2.89 1.386.347 5.658 1.231 5.658 5.566 0 2.841-1.807 5.101-5.249 5.857h5.113l3.094-8.892h14.617l2.638 8.892h1.296V.442H33zm20.606 0v3.625h-9.104v4.424h7.906v3.335h-7.906v8.056h9.617L61.028.442h-7.421z" fill="#E0041D"/></g><defs><clipPath id="clip0_1301_1222"><path fill="#fff" d="M0 0h120v20H0z"/></clipPath></defs></svg>
